actions/22x22-dark/view-calendar-wedding-anniversary.svg

<svg viewBox="0 0 22 22" xmlns="http://www.w3.org/2000/svg"><path d="m4 3c-.5540164 0-1 .4459836-1 1v14c0 .554016.4459836 1 1 1h14c .554016 0 1-.445984 1-1v-14c0-.5540164-.445984-1-1-1zm3.4824219 3.5449219h2.3554687c.1120652 0 .2154424.0560005.2753904.1503906l.445313.7070313c.079479.1258534.064519.2896266-.03711.3984374l-1.3105465 1.4003907-.3144531.3378906c-.0638306.0694816-.1522748.1035156-.2382813.1035156-.0859935 0-.1724844-.035345-.2363281-.1035156l-1.6230469-1.7382813c-.1029316-.1088108-.1165882-.272584-.0371093-.3984374l.4453124-.7070313c.0599349-.0943901.1646415-.1503906.2753907-.1503906zm5.8593751 1.5507812c.977199 0 1.897337.3813557 2.587891 1.0761719.690553.6948162 1.070312 1.620285 1.070312 2.603516 0 .98323-.379759 1.906746-1.070312 2.601562-.690554.694816-1.610692 1.078125-2.587891 1.078125-.032573 0-.06248-.000642-.09375-.001953-.835179-.022287-1.659731-.34134-2.292969-.890625-.799987-.692207-1.2714842-1.728498-1.2714842-2.789062 0-.613536.14892-1.203458.4277342-1.730469.177212.150762.33195.330029.457031.529297.104235.169115.184872.348329.242188.537109-.054723.212378-.083985.436595-.083985.666016 0 .718413.30435 1.423089.824219 1.916015.480795.454921 1.131732.714844 1.791016.714844 1.442345 0 2.617187-1.179611 2.617187-2.630859 0-1.451249-1.174842-2.6328129-2.617187-2.6328129-.491205 0-.948312.1377137-1.341797.375-.198046-.2962801-.435374-.5661436-.701172-.796875.599349-.4077129 1.30422-.625 2.042969-.625zm-6.3808595.4160157.7539063.8085937c-.9771988.3814934-1.671875 1.3381285-1.671875 2.4550785-.0000001 1.451248 1.1728889 2.630872 2.6152343 2.630859.4820848 0 .933992-.129955 1.3222657-.359375.1368082.203201.2915542.395913.4648432.574219.076873.078658.155547.153817.236329.224609-.594137.397225-1.291843.609375-2.0214848.609375-.9771987 0-1.897987-.382627-2.5898437-1.080078-.6905538-.694816-1.0703125-1.618332-1.0703125-2.601562 0-.983231.3797587-1.9067468 1.0703125-2.601563.2657981-.2674387.566195-.4897296.890625-.6601562zm3.3945315.0019531c.175896.0917682.341695.1990607.498047.3183593.901628.6895723 1.465494 1.7923238 1.466796 2.9433598 0 .12192-.007817.245253-.019531.367187-.046918.471951-.180197.925576-.396484 1.339844-.27101-.233353-.487555-.530936-.623047-.865234l-.082031-.203126c.155062-.626645.071798-1.308632-.230469-1.878906-.281446-.530944-.745735-.9541464-1.296875-1.1874998-.0221498-.0091768-.0462095-.0181669-.0683594-.0273437z" fill="#f2f2f2"/></svg>

<svg xmlns="http://www.w3.org/2000/svg" viewBox="0 0 22 22">
  <defs id="defs3051">
    <style type="text/css" id="current-color-scheme">
      .ColorScheme-Text {
        color:#f2f2f2
      }
      </style>
  </defs>
 <path 
     style="fill:currentColor;fill-opacity:1;stroke:none"      
	 class="ColorScheme-Text"
        d="M 4 3 C 3.4459836 3 3 3.4459836 3 4 L 3 18 C 3 18.554016 3.4459836 19 4 19 L 18 19 C 18.554016 19 19 18.554016 19 18 L 19 4 C 19 3.4459836 18.554016 3 18 3 L 4 3 z M 7.4824219 6.5449219 L 9.8378906 6.5449219 C 9.9499558 6.5449219 10.053333 6.6009224 10.113281 6.6953125 L 10.558594 7.4023438 C 10.638073 7.5281972 10.623113 7.6919704 10.521484 7.8007812 L 9.2109375 9.2011719 L 8.8964844 9.5390625 C 8.8326538 9.6085441 8.7442096 9.6425781 8.6582031 9.6425781 C 8.5722096 9.6425781 8.4857187 9.6072331 8.421875 9.5390625 L 6.7988281 7.8007812 C 6.6958965 7.6919704 6.6822399 7.5281972 6.7617188 7.4023438 L 7.2070312 6.6953125 C 7.2669661 6.6009224 7.3716727 6.5449219 7.4824219 6.5449219 z M 13.341797 8.0957031 C 14.318996 8.0957031 15.239134 8.4770588 15.929688 9.171875 C 16.620241 9.8666912 17 10.79216 17 11.775391 C 17 12.758621 16.620241 13.682137 15.929688 14.376953 C 15.239134 15.071769 14.318996 15.455078 13.341797 15.455078 C 13.309224 15.455078 13.279317 15.454436 13.248047 15.453125 C 12.412868 15.430838 11.588316 15.111785 10.955078 14.5625 C 10.155091 13.870293 9.6835938 12.834002 9.6835938 11.773438 C 9.6835938 11.159902 9.8325138 10.56998 10.111328 10.042969 C 10.28854 10.193731 10.443278 10.372998 10.568359 10.572266 C 10.672594 10.741381 10.753231 10.920595 10.810547 11.109375 C 10.755824 11.321753 10.726562 11.54597 10.726562 11.775391 C 10.726562 12.493804 11.030912 13.19848 11.550781 13.691406 C 12.031576 14.146327 12.682513 14.40625 13.341797 14.40625 C 14.784142 14.40625 15.958984 13.226639 15.958984 11.775391 C 15.958984 10.324142 14.784142 9.1425781 13.341797 9.1425781 C 12.850592 9.1425781 12.393485 9.2802918 12 9.5175781 C 11.801954 9.221298 11.564626 8.9514345 11.298828 8.7207031 C 11.898177 8.3129902 12.603048 8.0957031 13.341797 8.0957031 z M 6.9609375 8.5117188 L 7.7148438 9.3203125 C 6.737645 9.7018059 6.0429688 10.658441 6.0429688 11.775391 C 6.0429687 13.226639 7.2158577 14.406263 8.6582031 14.40625 C 9.1402879 14.40625 9.5921951 14.276295 9.9804688 14.046875 C 10.117277 14.250076 10.272023 14.442788 10.445312 14.621094 C 10.522185 14.699752 10.600859 14.774911 10.681641 14.845703 C 10.087504 15.242928 9.389798 15.455078 8.6601562 15.455078 C 7.6829575 15.455078 6.7621692 15.072451 6.0703125 14.375 C 5.3797587 13.680184 5 12.756668 5 11.773438 C 5 10.790207 5.3797587 9.8666912 6.0703125 9.171875 C 6.3361106 8.9044363 6.6365075 8.6821454 6.9609375 8.5117188 z M 10.355469 8.5136719 C 10.531365 8.6054401 10.697164 8.7127326 10.853516 8.8320312 C 11.755144 9.5216035 12.31901 10.624355 12.320312 11.775391 C 12.320312 11.897311 12.312495 12.020644 12.300781 12.142578 C 12.253863 12.614529 12.120584 13.068154 11.904297 13.482422 C 11.633287 13.249069 11.416742 12.951486 11.28125 12.617188 L 11.199219 12.414062 C 11.354281 11.787417 11.271017 11.10543 10.96875 10.535156 C 10.687304 10.004212 10.223015 9.5810096 9.671875 9.3476562 C 9.6497252 9.3384794 9.6256655 9.3294893 9.6035156 9.3203125 L 10.355469 8.5136719 z "
     />
</svg>
